website/assets/icons/logo.svg

<svg xmlns="http://www.w3.org/2000/svg" role="img" viewBox="-7.93 -7.68 438.36 83.86"><g clip-path="url(#clip0_4_752)"><path fill="#FFB800" d="M84.804 54.408h57v5.024h-57zm280.229 0h57.049v5.024h-57.049z"/><path d="M100.829 26.4594c1.62.0321 3.224-.3213 4.68-1.0311 1.456-.7098 2.722-1.7557 3.695-3.0513l4.501 4.6058c-3.559 3.9777-7.642 5.9665-12.457 5.9665a16.182 16.182 0 0 1-6.3724-1.0463 16.18132 16.18132 0 0 1-5.4559-3.4548 15.07172 15.07172 0 0 1-3.5201-5.2135 15.0726 15.0726 0 0 1-1.0857-6.1962 15.38704 15.38704 0 0 1 1.1397-6.2545 15.3872 15.3872 0 0 1 3.5707-5.25995 16.89485 16.89485 0 0 1 5.7624-3.56785A16.89603 16.89603 0 0 1 101.988.94009c2.279.11739 4.511.69539 6.561 1.69913 2.049 1.00374 3.875 2.41239 5.365 4.14095L109.622 11.7c-.945-1.273-2.177-2.30584-3.595-3.015-1.419-.70916-2.984-1.07481-4.57-1.06742-2.4713-.04756-4.8678.85114-6.6988 2.51222a8.7727 8.7727 0 0 0-2.1847 3.1387 8.7722 8.7722 0 0 0-.6416 3.77 9.42014 9.42014 0 0 0 .582 3.7777 9.41968 9.41968 0 0 0 2.0349 3.2356c1.7223 1.5541 3.9609 2.4122 6.2802 2.4076zm18.318 6.0712V1.44165h6.909V26.3547h13.294v6.1759h-20.203zm50.56-4.2916c-3.146 2.9588-7.301 4.6062-11.62 4.6062-4.318 0-8.473-1.6474-11.619-4.6062-1.534-1.4709-2.744-3.245-3.555-5.2093-.811-1.9643-1.205-4.0759-1.155-6.2005-.059-2.1258.329-4.2404 1.141-6.2061a15.17168 15.17168 0 0 1 3.569-5.20365c3.146-2.9588 7.301-4.60622 11.619-4.60622 4.319 0 8.474 1.64742 11.62 4.60622 1.533 1.4709 2.744 3.24494 3.555 5.20925.811 1.9643 1.204 4.0759 1.155 6.2005.059 2.1259-.33 4.2404-1.141 6.2061a15.17197 15.17197 0 0 1-3.569 5.2037zm-2.408-11.4098c.019-2.6303-.952-5.1716-2.722-7.11801a8.88191 8.88191 0 0 0-2.986-2.16428 8.88689 8.88689 0 0 0-7.216 0c-1.136.50463-2.154 1.24194-2.987 2.16428-1.789 1.93401-2.764 4.48351-2.721 7.11801-.02 2.6304.952 5.1716 2.721 7.118.833.9224 1.851 1.6597 2.987 2.1643 1.136.5046 2.365.7654 3.608.7654 1.243 0 2.472-.2608 3.608-.7654a8.88074 8.88074 0 0 0 2.986-2.1643 9.77354 9.77354 0 0 0 2.082-3.2832c.468-1.2226.685-2.5266.64-3.8348zm21.249 7.7458c.553.7159 1.269 1.2891 2.088 1.6715.82.3825 1.719.5631 2.623.5267.89.0473 1.778-.1291 2.582-.5131.805-.3839 1.5-.9633 2.023-1.6851a9.27595 9.27595 0 0 0 1.675-5.8619V1.54614h6.909V18.9225c0 4.5011-1.256 7.9554-3.768 10.363a13.1963 13.1963 0 0 1-4.394 2.7905c-1.636.629-3.38.9259-5.132.8732-1.767.0527-3.528-.2437-5.18-.8724a13.43187 13.43187 0 0 1-4.45-2.7913c-2.513-2.4076-3.769-5.8619-3.769-10.363V1.54614h6.909V18.7131c-.002 2.1032.657 4.1539 1.884 5.8619zm48.884-19.05096c2.931 2.7216 4.501 6.48996 4.501 11.30506 0 4.8152-1.465 8.6882-4.291 11.5145-2.827 2.8262-7.328 4.187-13.19 4.187h-10.781V1.44165h10.991c5.548 0 9.839 1.3608 12.77 4.08239zm-5.024 18.52776c1.675-1.5701 2.512-3.9777 2.512-7.0133s-.837-5.4432-2.512-7.0134c-1.675-1.57011-4.292-2.5122-7.851-2.5122h-3.873v18.9465h4.396c2.658.1416 5.272-.7174 7.328-2.4076zm48.988-22.61015h6.909V32.5306h-6.909l-14.864-19.4698v19.4698h-6.908V1.44165h6.489l15.283 19.99325V1.44165zm36.742 31.08895l-2.931-6.6993h-13.084l-2.931 6.6993h-7.432l13.398-31.08895h6.699l13.399 31.08895h-7.118zm-9.316-21.7727l-3.873 9.0022h7.746l-3.873-9.0022zm31.298-3.24519V32.6351h-6.909V7.51271h-8.793V1.54614h24.599v5.96657h-8.897zm13.818-6.07106h6.908V32.5306h-6.908V1.44165zm26.064 19.78385l7.955-19.78385h7.537L383.037 32.5306h-5.861L364.719 1.44165h7.537l7.746 19.78385zm41.557-19.78385v6.17593h-15.493v6.38532h13.922v5.9665h-13.922v6.49h16.016v6.1759h-22.924V1.54633h22.401v-.10468zM10.0744 45.4368H.54883v22.3694H22.845v-9.6198H10.0744V45.4368zm47.942.1046v12.645H45.2458v9.6198H67.542V45.4368h-9.6303l.1047.1046zM.54883 23.1826h9.63027l-.1047-.1046V10.433H22.845V.81323H.54883V23.1826zM45.2458.81323V10.433h12.7706v12.7496h9.5256V.81323H45.2458z"/><path d="M43.9897 23.1826L31.2191 10.433h14.0267V.81323H22.845V10.433l12.7705 12.7496h8.3742zM32.4752 45.4368h-8.3741l10.5723 10.5618 2.0936 2.1878H22.845v9.6198h22.4008v-9.7245l-6.3853-6.2806-6.3853-6.3643zm25.541-22.2542v13.9011l-2.1983-2.1982-10.5723-10.5619v8.4683l6.2806 6.2806 6.3853 6.3748h9.6302V23.1826h-9.5255zM22.845 35.8276l-12.6659-12.645H.54883v22.2543h9.52557V31.5358L22.845 44.2959v-8.4683z" opacity=".65"/><path d="M166.031 65.4473h4.823l-6.833-17.2591h-4.824l-6.833 17.2591h4.824l1.055-2.6379h6.733l1.055 2.6379zm-6.507-5.8787l2.085-5.3008 2.085 5.3008h-4.17zm14.474 5.8787h4.296v-5.4014h3.718c3.819 0 6.557-2.4368 6.557-5.9288 0-3.4921-2.738-5.9289-6.557-5.9289h-8.014v17.2591zm4.296-9.3204v-4.0196h3.341c1.482 0 2.512.8039 2.512 2.0098 0 1.2058-1.03 2.0098-2.512 2.0098h-3.341zm13.772 9.3204h4.296v-5.4014h3.718c3.819 0 6.557-2.4368 6.557-5.9288 0-3.4921-2.738-5.9289-6.557-5.9289h-8.014v17.2591zm4.296-9.3204v-4.0196h3.342c1.482 0 2.512.8039 2.512 2.0098 0 1.2058-1.03 2.0098-2.512 2.0098h-3.342zm21.096 9.3204h6.305c5.929 0 10.125-3.5925 10.125-8.6421s-4.196-8.617-10.125-8.617h-6.305v17.2591zm4.296-3.894v-9.4712h2.663c2.964 0 5.049 1.9596 5.049 4.7231 0 2.7634-2.085 4.7481-5.049 4.7481h-2.663zm29.302-9.5214v-3.8437h-13.592v17.2591h13.592v-3.8438h-9.296v-3.0398h8.441V54.72h-8.441v-2.6881h9.296zm8.208 9.5716V48.1882h-4.295v17.2591h12.611v-3.8438h-8.316zm11.688 3.8438h4.296V48.1882h-4.296v17.2591zm21.129-17.2591l-4.396 11.1292-4.422-11.1292h-4.823l6.808 17.2591h4.848l6.809-17.2591h-4.824zm21.607 3.8437v-3.8437h-13.591v17.2591h13.591v-3.8438h-9.295v-3.0398h8.441V54.72h-8.441v-2.6881h9.295zm18.584 13.4154l-4.095-5.8033c2.437-.8542 3.995-2.8891 3.995-5.5269 0-3.4921-2.738-5.9289-6.557-5.9289h-8.014v17.2591h4.296v-5.4014h1.708l3.794 5.4014h4.873zm-10.375-13.34h3.341c1.482 0 2.512.8039 2.512 2.0098 0 1.2058-1.03 2.0098-2.512 2.0098h-3.341v-4.0196zm19.293 13.34h4.321v-5.954l6.683-11.3051h-4.773l-4.07 7.2855-3.894-7.2855h-4.949l6.682 11.3051v5.954z"/></g><defs><clipPath id="clip0_4_752"><path fill="#fff" d="M0 0h422.161v66.993H0z" transform="translate(.549 .813)"/></clipPath></defs></svg>

<svg width="423" height="68" viewBox="0 0 423 68" fill="none" xmlns="http://www.w3.org/2000/svg">
<g clip-path="url(#clip0_4_752)">
<rect x="84.8037" y="54.4077" width="57" height="5.02448" fill="#FFB800"/>
<rect x="365.033" y="54.4077" width="57.049" height="5.02448" fill="#FFB800"/>
<path d="M100.829 26.4594C102.449 26.4915 104.053 26.1381 105.509 25.4283C106.965 24.7185 108.231 23.6726 109.204 22.377L113.705 26.9828C110.146 30.9605 106.063 32.9493 101.248 32.9493C99.0752 33.0322 96.9079 32.6764 94.8756 31.903C92.8433 31.1297 90.9878 29.9547 89.4197 28.4482C87.8927 26.9773 86.6932 25.2008 85.8996 23.2347C85.1059 21.2686 84.736 19.1573 84.8139 17.0385C84.7543 14.8971 85.1424 12.7668 85.9536 10.784C86.7647 8.80123 87.9809 7.00969 89.5243 5.52405C91.1844 3.95775 93.1446 2.74405 95.2867 1.9562C97.4288 1.16836 99.7083 0.822697 101.988 0.940088C104.267 1.05748 106.499 1.63548 108.549 2.63922C110.598 3.64296 112.424 5.05161 113.914 6.78017L109.622 11.7C108.677 10.427 107.445 9.39416 106.027 8.685C104.608 7.97584 103.043 7.61019 101.457 7.61758C98.9857 7.57002 96.5892 8.46872 94.7582 10.1298C93.808 11.0027 93.062 12.0744 92.5735 13.2685C92.085 14.4627 91.8659 15.7499 91.9319 17.0385C91.8657 18.3243 92.0638 19.61 92.5139 20.8162C92.964 22.0225 93.6565 23.1237 94.5488 24.0518C96.2711 25.6059 98.5097 26.464 100.829 26.4594Z" fill="black"/>
<path d="M119.147 32.5306V1.44165H126.056V26.3547H139.35V32.5306H119.147Z" fill="black"/>
<path d="M169.707 28.239C166.561 31.1978 162.406 32.8452 158.087 32.8452C153.769 32.8452 149.614 31.1978 146.468 28.239C144.934 26.7681 143.724 24.994 142.913 23.0297C142.102 21.0654 141.708 18.9538 141.758 16.8292C141.699 14.7034 142.087 12.5888 142.899 10.6231C143.711 8.65735 144.927 6.88439 146.468 5.41945C149.614 2.46065 153.769 0.813232 158.087 0.813232C162.406 0.813232 166.561 2.46065 169.707 5.41945C171.24 6.89035 172.451 8.66439 173.262 10.6287C174.073 12.593 174.466 14.7046 174.417 16.8292C174.476 18.9551 174.087 21.0696 173.276 23.0353C172.464 25.0011 171.248 26.774 169.707 28.239ZM167.299 16.8292C167.318 14.1989 166.347 11.6576 164.577 9.71119C163.744 8.78885 162.727 8.05154 161.591 7.54691C160.455 7.04227 159.226 6.78154 157.983 6.78154C156.74 6.78154 155.511 7.04227 154.375 7.54691C153.239 8.05154 152.221 8.78885 151.388 9.71119C149.599 11.6452 148.624 14.1947 148.667 16.8292C148.647 19.4596 149.619 22.0008 151.388 23.9472C152.221 24.8696 153.239 25.6069 154.375 26.1115C155.511 26.6161 156.74 26.8769 157.983 26.8769C159.226 26.8769 160.455 26.6161 161.591 26.1115C162.727 25.6069 163.744 24.8696 164.577 23.9472C165.484 23.003 166.192 21.8866 166.659 20.664C167.127 19.4414 167.344 18.1374 167.299 16.8292Z" fill="black"/>
<path d="M188.548 24.575C189.101 25.2909 189.817 25.8641 190.636 26.2465C191.456 26.629 192.355 26.8096 193.259 26.7732C194.149 26.8205 195.037 26.6441 195.841 26.2601C196.646 25.8762 197.341 25.2968 197.864 24.575C199.067 22.8653 199.657 20.7999 199.539 18.7131V1.54614H206.448V18.9225C206.448 23.4236 205.192 26.8779 202.68 29.2855C201.415 30.4983 199.921 31.447 198.286 32.076C196.65 32.705 194.906 33.0019 193.154 32.9492C191.387 33.0019 189.626 32.7055 187.974 32.0768C186.321 31.4481 184.809 30.4996 183.524 29.2855C181.011 26.8779 179.755 23.4236 179.755 18.9225V1.54614H186.664V18.7131C186.662 20.8163 187.321 22.867 188.548 24.575Z" fill="black"/>
<path d="M237.432 5.52404C240.363 8.24564 241.933 12.014 241.933 16.8291C241.933 21.6443 240.468 25.5173 237.642 28.3436C234.815 31.1698 230.314 32.5306 224.452 32.5306H213.671V1.44165H224.662C230.21 1.44165 234.501 2.80245 237.432 5.52404ZM232.408 24.0518C234.083 22.4817 234.92 20.0741 234.92 17.0385C234.92 14.0029 234.083 11.5953 232.408 10.0251C230.733 8.45499 228.116 7.5129 224.557 7.5129H220.684V26.4594H225.08C227.738 26.601 230.352 25.742 232.408 24.0518Z" fill="black"/>
<path d="M281.396 1.44165H288.305V32.5306H281.396L266.532 13.0608V32.5306H259.624V1.44165H266.113L281.396 21.4349V1.44165Z" fill="black"/>
<path d="M318.138 32.5306L315.207 25.8313H302.123L299.192 32.5306H291.76L305.158 1.44165H311.857L325.256 32.5306H318.138ZM308.822 10.7579L304.949 19.7601H312.695L308.822 10.7579Z" fill="black"/>
<path d="M340.12 7.51271V32.6351H333.211V7.51271H324.418V1.54614H349.017V7.51271H340.12Z" fill="black"/>
<path d="M353.938 1.44165H360.846V32.5306H353.938V1.44165Z" fill="black"/>
<path d="M380.002 21.2255L387.957 1.44165H395.494L383.037 32.5306H377.176L364.719 1.44165H372.256L380.002 21.2255Z" fill="black"/>
<path d="M421.559 1.44165V7.61758H406.066V14.0029H419.988V19.9694H406.066V26.4594H422.082V32.6353H399.158V1.54633H421.559V1.44165Z" fill="black"/>
<path d="M10.0744 45.4368H0.548828V67.8062H22.845V58.1864H10.0744V45.4368Z" fill="black"/>
<path d="M58.0164 45.5414V58.1864H45.2458V67.8062H67.542V45.4368H57.9117L58.0164 45.5414Z" fill="black"/>
<path d="M0.548828 23.1826H10.1791L10.0744 23.078V10.433H22.845V0.813232H0.548828V23.1826Z" fill="black"/>
<path d="M45.2458 0.813232V10.433H58.0164V23.1826H67.542V0.813232H45.2458Z" fill="black"/>
<path opacity="0.65" d="M43.9897 23.1826L31.2191 10.433H45.2458V0.813232H22.845V10.433L35.6155 23.1826H43.9897Z" fill="black"/>
<path opacity="0.65" d="M32.4752 45.4368H24.1011L34.6734 55.9986L36.767 58.1864H22.845V67.8062H45.2458V58.0817L38.8605 51.8011L32.4752 45.4368Z" fill="black"/>
<path opacity="0.65" d="M58.0162 23.1826V37.0837L55.8179 34.8855L45.2456 24.3236V32.7919L51.5262 39.0725L57.9115 45.4473H67.5417V23.1826H58.0162Z" fill="black"/>
<path opacity="0.65" d="M22.845 35.8276L10.1791 23.1826H0.548828V45.4369H10.0744V31.5358L22.845 44.2959V35.8276Z" fill="black"/>
<path d="M166.031 65.4473H170.854L164.021 48.1882H159.197L152.364 65.4473H157.188L158.243 62.8094H164.976L166.031 65.4473ZM159.524 59.5686L161.609 54.2678L163.694 59.5686H159.524ZM173.998 65.4473H178.294V60.0459H182.012C185.831 60.0459 188.569 57.6091 188.569 54.1171C188.569 50.625 185.831 48.1882 182.012 48.1882H173.998V65.4473ZM178.294 56.1269V52.1073H181.635C183.117 52.1073 184.147 52.9112 184.147 54.1171C184.147 55.3229 183.117 56.1269 181.635 56.1269H178.294ZM192.066 65.4473H196.362V60.0459H200.08C203.899 60.0459 206.637 57.6091 206.637 54.1171C206.637 50.625 203.899 48.1882 200.08 48.1882H192.066V65.4473ZM196.362 56.1269V52.1073H199.704C201.186 52.1073 202.216 52.9112 202.216 54.1171C202.216 55.3229 201.186 56.1269 199.704 56.1269H196.362ZM217.458 65.4473H223.763C229.692 65.4473 233.888 61.8548 233.888 56.8052C233.888 51.7556 229.692 48.1882 223.763 48.1882H217.458V65.4473ZM221.754 61.5533V52.0821H224.417C227.381 52.0821 229.466 54.0417 229.466 56.8052C229.466 59.5686 227.381 61.5533 224.417 61.5533H221.754ZM251.056 52.0319V48.1882H237.464V65.4473H251.056V61.6035H241.76V58.5637H250.201V54.72H241.76V52.0319H251.056ZM259.264 61.6035V48.1882H254.969V65.4473H267.58V61.6035H259.264ZM270.952 65.4473H275.248V48.1882H270.952V65.4473ZM292.081 48.1882L287.685 59.3174L283.263 48.1882H278.44L285.248 65.4473H290.096L296.905 48.1882H292.081ZM313.688 52.0319V48.1882H300.097V65.4473H313.688V61.6035H304.393V58.5637H312.834V54.72H304.393V52.0319H313.688ZM332.272 65.4473L328.177 59.644C330.614 58.7898 332.172 56.7549 332.172 54.1171C332.172 50.625 329.434 48.1882 325.615 48.1882H317.601V65.4473H321.897V60.0459H323.605L327.399 65.4473H332.272ZM321.897 52.1073H325.238C326.72 52.1073 327.75 52.9112 327.75 54.1171C327.75 55.3229 326.72 56.1269 325.238 56.1269H321.897V52.1073ZM341.19 65.4473H345.511V59.4933L352.194 48.1882H347.421L343.351 55.4737L339.457 48.1882H334.508L341.19 59.4933V65.4473Z" fill="black"/>
</g>
<defs>
<clipPath id="clip0_4_752">
<rect width="422.161" height="66.9931" fill="white" transform="translate(0.548828 0.813232)"/>
</clipPath>
</defs>
</svg>
